svg/fluentui-system-icons/ic_fluent_checkbox_2_20_regular.svg

<svg width="20" height="20" viewBox="0 0 20 20" fill="none" xmlns="http://www.w3.org/2000/svg">
<path d="M6 3C4.34315 3 3 4.34315 3 6V14C3 15.6569 4.34315 17 6 17H13.0506C13.1105 16.7092 13.2303 16.3716 13.4458 16.0065L13.4497 16H6C4.89543 16 4 15.1046 4 14V6C4 4.89543 4.89543 4 6 4H14C15.1046 4 16 4.89543 16 6V11C16.3528 11.0015 16.6892 11.0643 17 11.1749V6C17 4.34315 15.6569 3 14 3H6ZM13.8536 7.85355C14.0488 7.65829 14.0488 7.34171 13.8536 7.14645C13.6583 6.95118 13.3417 6.95118 13.1464 7.14645L8.5 11.7929L6.85355 10.1464C6.65829 9.95118 6.34171 9.95118 6.14645 10.1464C5.95118 10.3417 5.95118 10.6583 6.14645 10.8536L8.14645 12.8536C8.34171 13.0488 8.65829 13.0488 8.85355 12.8536L13.8536 7.85355ZM15.9305 13.0015C15.6359 13.0172 15.2624 13.1638 14.8773 13.604C14.6955 13.8119 14.3796 13.833 14.1718 13.6512C13.964 13.4694 13.9428 13.1535 14.1247 12.9456C14.6564 12.3377 15.2695 12.0354 15.8772 12.0029C16.4773 11.9709 17.0183 12.2056 17.3997 12.5702C17.7777 12.9316 18.0255 13.4481 17.9892 14.0002C17.9516 14.5728 17.6149 15.0931 16.9999 15.4472C15.8916 16.0855 15.3995 16.6422 15.1815 17.0009H17.5004C17.7765 17.0009 18.0004 17.2247 18.0004 17.5009C18.0004 17.777 17.7765 18.0009 17.5004 18.0009H14.501C14.2452 18.0009 14.0307 17.8078 14.0038 17.5535L14.0037 17.5524L14.0035 17.5513L14.0033 17.549C13.9996 17.5093 13.9993 17.4692 14.0009 17.4293C14.0034 17.3702 14.0111 17.2944 14.0296 17.204C14.0667 17.0224 14.1461 16.7874 14.307 16.5147C14.6286 15.9698 15.2641 15.2929 16.5009 14.5807C16.8737 14.3659 16.979 14.1223 16.9913 13.9346C17.005 13.7264 16.9107 13.4862 16.7087 13.293C16.51 13.1031 16.2328 12.9853 15.9305 13.0015Z" fill="#212121"/>
</svg>

<svg xmlns="http://www.w3.org/2000/svg" width="20" height="20"><path d="M6 3a3 3 0 0 0-3 3v8a3 3 0 0 0 3 3h7.05c.06-.29.18-.628.396-.994L13.45 16H6a2 2 0 0 1-2-2V6a2 2 0 0 1 2-2h8a2 2 0 0 1 2 2v5c.353.002.69.064 1 .175V6a3 3 0 0 0-3-3H6Zm7.854 4.854a.5.5 0 0 0-.708-.708L8.5 11.793l-1.646-1.647a.5.5 0 0 0-.708.708l2 2a.5.5 0 0 0 .708 0l5-5ZM15.93 13c-.295.016-.669.163-1.054.603a.5.5 0 1 1-.752-.658c.531-.608 1.145-.91 1.752-.943a2.05 2.05 0 0 1 1.523.567c.378.362.626.878.59 1.43-.038.573-.375 1.093-.99 1.447-1.108.639-1.6 1.195-1.819 1.554h2.32a.5.5 0 1 1 0 1h-3a.5.5 0 0 1-.497-.448v-.004a.902.902 0 0 1-.003-.12c.002-.059.01-.135.029-.225.037-.182.116-.417.277-.69.322-.544.957-1.221 2.194-1.933.373-.215.478-.459.49-.646.014-.209-.08-.449-.282-.642a1.046 1.046 0 0 0-.778-.291Z"/></svg>
